X: 59
T: Asher Bara #2 (A)
Z: 2003 John Chambers <jc:trillian.mit.edu>
M: 2/4
L: 1/8
K: A
|: "A"A>B cc  |    cc/c/ cc \
| "E7"Bd  cB  | "A"e2    e2 \
|  "A"A>B cc  |    cc/c/ cc \
| "E7"Bd  cB  | "A"A2    z2 :|
|: "A"e   c3  |    e  c3    \
| "E7"Bd  cB  | "A"e2    e2 \
|  "A"ec- c>c |    e  c2 c  \
| "E7"Bd  cB  | "A"A2    z2 :|



